X:867
T:Xiraldilla (CT 361)
R:Xiraldilla
C:Tradicional
S:Msica Tradicional Asturiana, (C) Tello & Tito. Asturies, 2001.
S:http://pagina.de/MusTradAst <telloytito@asturies.org>
N:Xiraldilla, variante de la nmero CT 361, dictada por Leandra Gonzlez Zuazua, de cincuenta aos, de Uviu.
A:Asturies
O:Uviu
Z:Cancioneru de Torner 361
M:3/8
L:1/8
Q:3/8=88
K:Gm
|G2 B|ddd|c2 A|GcB|AcB|A2 G|^F3|
G2 A|BAG|=F2 (E|D3)|
G2 A|BAB|c2 B|dcA|G2 z :||
W:-Deja que corra la bola,
W:que ella sola se divierte;
W:as me divierto yo
W:cuando voi, morena, a vete.
W:
W:-Si vienes, galn, a veme
W:pa divertite conmigo,
W:ya puedes pescar la puerta,
W:que aqu nun se muele el trigo.
W:
W:-Cuando voi, morena, a vete,
W:siempre voi, con alegra
W:porque llevo la esperanza
W:de ser tuyu y t ser ma.
W:
W:-Si vienes con la esperanza
W:de ser mu y yo ser tuya,
W:arregla ts los papeles
W:y ve a tar col sior cura.
W:
